X:860
T: Salt and Pepper
S: B.Breathnach:"Ceol Rince na hEireann" IV/80 (gan ainm)
Z: B.Black
L: 1/8
M: 2/4
Q: 280
R: polka
K: G
A|: B/c/d/B/ GB|B/c/d/B/ GB|A/B/A/G/ FA|GB d2|
B/c/d/B/ GB|B/c/d/B/ GB|A/B/A/G/ FA|G2 GA :|
Bd ef|g2 g2|fe/f/ df|ed BA|
Bd ef|g2 g2|fe/f/ af|e2 e2 :|
